icons/military_worker_fill.svg

<svg width="48" height="48" viewBox="0 0 48 48" fill="none" xmlns="http://www.w3.org/2000/svg">
<path fill-rule="evenodd" clip-rule="evenodd" d="M24 6C18.7073 6 14.4167 10.4772 14.4167 16C14.4167 16.5762 13.7804 17.8162 13.2411 18.7639C13.0064 19.1763 13.4175 19.6866 13.8692 19.5415C14.6248 19.2987 15.3592 19.0806 16.0769 18.8872C16.0262 19.2512 16 19.6228 16 20C16 24.4183 19.5817 28 24 28C28.4183 28 32 24.4183 32 20C32 19.6228 31.9738 19.2512 31.9231 18.8872C32.6408 19.0806 33.3752 19.2987 34.1308 19.5415C34.5825 19.6866 34.9936 19.1763 34.7589 18.7639C34.2196 17.8162 33.5833 16.5762 33.5833 16C33.5833 10.4772 29.2927 6 24 6ZM23.8268 9.12528C23.8811 8.95824 24.1173 8.95824 24.1716 9.12528L24.6657 10.6458C24.69 10.7205 24.7596 10.771 24.8381 10.771H26.4369C26.6124 10.771 26.6855 10.9957 26.5434 11.0989L25.25 12.0387C25.1865 12.0849 25.1598 12.1666 25.1841 12.2413L25.6782 13.7619C25.7324 13.9288 25.5413 14.0678 25.3992 13.9646L24.1058 13.0248C24.0423 12.9786 23.9563 12.9786 23.8927 13.0248L22.5993 13.9646C22.4572 14.0678 22.266 13.9288 22.3203 13.7619L22.8144 12.2413C22.8386 12.1666 22.8121 12.0849 22.7486 12.0387L21.4551 11.0989C21.313 10.9957 21.386 10.771 21.5616 10.771H23.1604C23.2389 10.771 23.3085 10.7205 23.3328 10.6458L23.8268 9.12528ZM18.1153 18.8227C18.0397 19.2027 18 19.5963 18 20C18 23.3137 20.6863 26 24 26C27.3137 26 30 23.3137 30 20C30 19.5963 29.9603 19.2027 29.8847 18.8227C25.7458 17.821 22.2542 17.821 18.1153 18.8227Z" fill="black"/>
<path d="M35 24L40 21.1429V9H42V32L35 29V24Z" fill="black"/>
<path d="M35.7257 31.7276L32.644 42H42V36.5C42 34.4959 39.3372 32.8578 35.7257 31.7276Z" fill="black"/>
<path fill-rule="evenodd" clip-rule="evenodd" d="M33.7981 31.193C30.4777 30.3794 26.6788 29.9544 23.4706 30.0066C16.2579 30.1242 6 32.4407 6 36.5V42H30.556L33.7981 31.193ZM12.1056 35.5528C12.3526 35.0588 12.9532 34.8586 13.4472 35.1056L15 35.882L16.5528 35.1056C17.0468 34.8586 17.6474 35.0588 17.8944 35.5528C18.1414 36.0468 17.9412 36.6474 17.4472 36.8944L15.4472 37.8944C15.1657 38.0352 14.8343 38.0352 14.5528 37.8944L12.5528 36.8944C12.0588 36.6474 11.8586 36.0468 12.1056 35.5528Z" fill="black"/>
<path d="M12.1424 29.3384C12.6362 29.0912 12.8362 28.4904 12.5889 27.9965C12.3417 27.5027 11.7409 27.3028 11.247 27.55L7.5523 29.3998C7.05845 29.6471 6.85854 30.2478 7.10579 30.7417C7.35304 31.2355 7.95382 31.4354 8.44766 31.1882L12.1424 29.3384Z" fill="black"/>
</svg>

<svg
  xmlns="http://www.w3.org/2000/svg"
  width="24"
  height="24"
  viewBox="0 0 24 24"
  fill="none"
  stroke="currentColor"
  stroke-width="2"
  stroke-linecap="round"
  stroke-linejoin="round"
>
  <path
    fill-rule="evenodd"
    d="M24 6c-5.293 0-9.583 4.477-9.583 10 0 .576-.637 1.816-1.176 2.764-.235.412.177.923.628.777a48 48 0 0 1 2.208-.654Q16 19.434 16 20a8 8 0 1 0 15.923-1.113 48 48 0 0 1 2.208.654c.452.146.863-.365.628-.777-.54-.948-1.176-2.188-1.176-2.764 0-5.523-4.29-10-9.583-10m-.173 3.125a.181.181 0 0 1 .345 0l.494 1.52a.18.18 0 0 0 .172.126h1.599c.175 0 .248.225.106.328l-1.293.94a.18.18 0 0 0-.066.202l.494 1.52a.181.181 0 0 1-.279.204l-1.293-.94a.18.18 0 0 0-.213 0l-1.294.94a.181.181 0 0 1-.279-.203l.494-1.52a.18.18 0 0 0-.065-.203l-1.294-.94a.181.181 0 0 1 .107-.328h1.598c.079 0 .148-.05.173-.125zm-5.712 9.698q-.114.57-.115 1.177a6 6 0 1 0 11.885-1.177c-4.14-1.002-7.63-1.002-11.77 0"
    clip-rule="evenodd"
  />
  <path d="m35 24 5-2.857V9h2v23l-7-3z" />
  <path d="M35.726 31.728 32.644 42H42v-5.5c0-2.004-2.663-3.642-6.274-4.772" />
  <path
    fill-rule="evenodd"
    d="M33.798 31.193c-3.32-.814-7.12-1.239-10.327-1.186C16.258 30.124 6 32.44 6 36.5V42h24.556zm-21.692 4.36a1 1 0 0 1 1.341-.447l1.553.776 1.553-.776a1 1 0 1 1 .894 1.788l-2 1a1 1 0 0 1-.894 0l-2-1a1 1 0 0 1-.447-1.341"
    clip-rule="evenodd"
  />
  <path d="M12.142 29.338a1 1 0 1 0-.895-1.788L7.552 29.4a1 1 0 0 0 .896 1.788z" />
</svg>
